public/library/ventuals-icon-dark.svg

<svg width="265" height="265" viewBox="0 0 265 265" fill="none" xmlns="http://www.w3.org/2000/svg">
<path d="M91.6062 120.357C90.796 123.181 58.1641 150.495 57.5976 149.083C56.6039 146.606 66.9706 129.243 70.3601 115.414C73.7502 101.585 72.4847 77.9891 74.2552 75.1646C76.0257 72.3401 92.4171 117.532 91.6062 120.357Z" fill="#EDE9DD"/>
<path d="M106.87 105.547C96.8441 93.6892 75.3175 74.1054 74.6093 74.8116C73.9011 75.5177 83.2607 94.6015 85.6233 101.31C87.9859 108.018 91.2889 120.022 91.2889 120.022C91.2889 120.022 100.685 123.209 108.995 127.083C117.303 130.959 125.283 135.557 125.991 135.204C126.699 134.851 116.896 117.405 106.87 105.547Z" fill="#FDF9EF"/>
<path d="M110.118 126.987C103.744 123.81 91.2209 120.007 91.2209 120.007C91.2209 120.007 79.2523 131.818 77.1277 133.936C75.003 136.055 58.3672 149.083 57.66 149.14C57.2042 149.177 65.1916 149.417 73.6348 148.028C82.0787 146.638 89.6147 145.275 95.9567 144.051C105.463 142.216 121.084 137.65 121.888 137.421C122.693 137.193 126.223 135.928 126.276 135.671C126.33 135.414 116.492 130.165 110.118 126.987Z" fill="#D5D1C5"/>
<path d="M162.317 123.383C163.08 121.669 136.252 53.3115 136.143 57.5493C136.081 59.946 135.507 80.1837 134.514 91.3293C133.52 102.475 131.16 113 129.67 120.926C128.179 128.852 114.269 161.42 114.927 161.737C115.586 162.054 161.554 125.098 162.317 123.383Z" fill="#EDE9DD"/>
<path d="M162.459 123.403C162.459 123.403 206.877 152.825 207.543 151.018C208.209 149.211 180.315 102.461 170.978 91.0984C161.639 79.7361 137.933 55.9674 136.569 57.0348C135.793 57.6413 146.845 81.9886 149.382 87.8177C151.918 93.6475 162.459 123.403 162.459 123.403Z" fill="#FDF9EF"/>
<path d="M115.325 161.697C115.129 159.346 160.743 123.057 162.316 122.959C163.888 122.862 207.69 150.43 207.395 151.312C207.1 152.193 162.49 157.386 162.49 157.386C162.49 157.386 115.522 164.048 115.325 161.697Z" fill="#D5D1C5"/>
<path d="M74.5038 155.308C73.8444 154.794 53.6318 155.02 52.4369 155.267C51.2419 155.514 91.4589 191.402 91.4589 191.402C91.4589 191.402 154.674 198.972 155.44 198.16C156.205 197.347 164.424 176.939 164.25 175.994C164.077 175.049 85.9016 175.859 85.9016 175.859C85.9016 175.859 75.1631 155.822 74.5038 155.308Z" fill="#FDF9EF"/>
<path d="M164.26 176.05C164.26 176.05 155.229 197.277 155.512 198.098C155.795 198.919 181.174 183.334 190.295 177.786C199.417 172.239 212.397 165.315 212.995 163.834C213.304 163.07 197.906 164.74 192.318 165.28C186.73 165.82 173.504 166.968 172.376 167.531C170.047 168.691 164.26 176.05 164.26 176.05Z" fill="#FDF9EF"/>
<path d="M52.4059 180.107C52.4059 180.107 51.5064 156.545 52.3854 155.332C53.2644 154.118 72.6554 173.343 72.6554 173.343C72.6554 173.343 91.3583 190.203 91.3052 191.224C91.2521 192.244 52.4059 180.107 52.4059 180.107Z" fill="#EDE9DD"/>
<path d="M212.925 164.16C212.452 161.906 155.274 198.229 155.274 198.229L184.907 202.353C184.907 202.353 213.398 166.414 212.925 164.16Z" fill="#EDE9DD"/>
<path d="M63.6477 203L71.2085 208.516C71.2085 208.516 101.923 208.982 121.525 208.999C141.127 209.017 171.718 208.608 171.718 208.608C171.718 208.608 177.358 207.057 179.586 205.89C181.813 204.724 184.905 202.264 184.905 202.264L155.481 198.191L91.3838 191.181L52.3977 180.107L63.6477 203Z" fill="#D5D1C5"/>
</svg>

<svg xmlns="http://www.w3.org/2000/svg" width="265" height="265" fill="none" viewBox="0 0 265 265"><path fill="#ede9dd" d="M91.606 120.357c-.81 2.824-33.442 30.138-34.008 28.726-.994-2.477 9.373-19.84 12.762-33.669s2.125-37.425 3.895-40.25c1.77-2.824 18.162 42.368 17.351 45.193"/><path fill="#fdf9ef" d="M106.87 105.547C96.844 93.689 75.317 74.105 74.61 74.812c-.709.706 8.65 19.79 11.013 26.498s5.666 18.712 5.666 18.712 9.396 3.187 17.706 7.061c8.308 3.876 16.288 8.474 16.996 8.121s-9.095-17.799-19.121-29.657"/><path fill="#d5d1c5" d="M110.118 126.987c-6.374-3.177-18.897-6.98-18.897-6.98s-11.969 11.811-14.093 13.929-18.76 15.147-19.468 15.204c-.456.037 7.532.277 15.975-1.112a831 831 0 0 0 22.322-3.977c9.506-1.835 25.127-6.401 25.931-6.63.805-.228 4.335-1.493 4.388-1.75.054-.257-9.784-5.506-16.158-8.684"/><path fill="#ede9dd" d="M162.317 123.383c.763-1.714-26.065-70.071-26.174-65.834-.062 2.397-.636 22.635-1.629 33.78-.994 11.146-3.354 21.671-4.844 29.597s-15.401 40.494-14.743 40.811c.659.317 46.627-36.639 47.39-38.354"/><path fill="#fdf9ef" d="M162.459 123.403s44.418 29.422 45.084 27.615-27.228-48.557-36.565-59.92c-9.339-11.362-33.045-35.13-34.409-34.063-.776.606 10.276 24.954 12.813 30.783 2.536 5.83 13.077 35.585 13.077 35.585"/><path fill="#d5d1c5" d="M115.325 161.697c-.196-2.351 45.418-38.64 46.991-38.738 1.572-.097 45.374 27.471 45.079 28.353-.295.881-44.905 6.074-44.905 6.074s-46.968 6.662-47.165 4.311"/><path fill="#fdf9ef" d="M74.504 155.308c-.66-.514-20.872-.288-22.067-.041s39.022 36.135 39.022 36.135 63.215 7.57 63.981 6.758 8.984-21.221 8.81-22.166-78.348-.135-78.348-.135-10.739-20.037-11.398-20.551"/><path fill="#fdf9ef" d="M164.26 176.05s-9.031 21.227-8.748 22.048 25.662-14.764 34.783-20.312c9.122-5.547 22.102-12.471 22.7-13.952.309-.764-15.089.906-20.677 1.446s-18.814 1.688-19.942 2.251c-2.329 1.16-8.116 8.519-8.116 8.519"/><path fill="#ede9dd" d="M52.406 180.107s-.9-23.562-.02-24.775c.878-1.214 20.27 18.011 20.27 18.011s18.702 16.86 18.65 17.881c-.054 1.02-38.9-11.117-38.9-11.117M212.925 164.16c-.473-2.254-57.651 34.069-57.651 34.069l29.633 4.124s28.491-35.939 28.018-38.193"/><path fill="#d5d1c5" d="m63.648 203 7.56 5.516s30.715.466 50.317.483c19.602.018 50.193-.391 50.193-.391s5.64-1.551 7.868-2.718c2.227-1.166 5.319-3.626 5.319-3.626l-29.424-4.073-64.097-7.01-38.986-11.074z"/></svg>
